X: 1
T: Josephine's
M: 3/4
L: 1/8
R: waltz
K: Gmaj
"G"DGA|B d c|BAG|D2 E|"C" C2 C/2C/2|EGF|E3|"D"D3|
"G"DGA|B d c|BAG|D2 E|"C"C2 C/2C/2| EFG|("D"A3|A)Bc|
|:"G"dBd|g2f|"C"e3|"G"d3|"C"ced|cBA|"G"B>c B|"D"ABc:|



